public/icons/sofa_icon.svg

<svg width="330" height="330" viewBox="0 0 330 330" fill="none" xmlns="http://www.w3.org/2000/svg">
<path d="M64.0076 50.3812C66.0846 50.2908 68.1627 50.2307 70.2413 50.2011L204.503 50.1835L244.236 50.1603C251.805 50.1595 260.131 49.54 267.601 50.7422C274.42 51.8403 280.561 55.1604 285.429 60.0069C299.38 73.8948 296.759 94.5582 296.654 112.517C302.71 112.782 308.427 113.759 313.505 117.324C319.437 121.49 322.123 127.461 323.227 134.449C325.169 146.729 323.944 170.074 323.948 183.315C323.952 196.837 325.147 217.793 323.424 230.61C322.841 234.946 321.843 238.701 319.176 242.24C315.216 247.495 309.646 249.523 303.353 250.462C303.271 256.949 304.39 264.144 303.483 270.498C303.126 272.999 302.194 275.355 300.036 276.835C296.021 279.587 284.092 279.333 279.425 278.174C270.415 275.938 273.02 256.728 269.051 249.745L267.479 249.537L59.7111 249.711C58.2869 255.884 57.0869 271.152 53.1937 275.411C51.1689 277.627 48.1853 278.382 45.3019 278.609C40.4698 278.991 32.123 279.849 28.2623 276.221C23.4565 271.706 25.3591 256.864 25.392 250.723C20.8162 249.634 16.7606 248.496 13.0623 245.466C7.834 241.184 6.38912 235.314 5.72062 228.856C5.11517 223.006 5.4214 216.902 5.41376 211.019L5.39664 180.646C5.39808 167.781 4.19276 146.271 5.97739 134.253C6.7189 129.259 8.01409 125.299 11.2757 121.385C16.8479 114.699 24.4348 113.329 32.6039 112.529C32.5024 96.8401 30.1258 78.2827 39.6459 64.7606C45.6156 56.281 53.97 52.0669 64.0076 50.3812Z" fill="black"/>
<path d="M169.695 61.4918L232.97 61.4405C242.883 61.4365 256.222 60.1607 265.79 62.2321C270.264 63.2006 274.575 65.6539 277.82 68.8675C288.306 79.2544 285.573 98.5171 285.601 112.122C282.442 112.767 279.33 113.429 276.426 114.88C269.229 118.475 265.872 123.996 263.376 131.415C262.191 138.542 262.5 145.86 262.524 153.062C250.886 150.659 237.96 151.752 226.096 151.763L169.978 151.849C170.081 121.73 169.987 91.6103 169.695 61.4918Z" fill="#FEFEFE"/>
<path d="M65.5906 61.8078C75.9781 60.9337 86.9138 61.5877 97.3648 61.5757L159.117 61.5164L159.183 151.822L137.362 151.811L94.9859 151.791C85.4691 151.791 75.8166 151.432 66.3479 152.48C66.381 142.449 67.8279 130.351 61.6199 121.761C57.0446 115.43 50.6707 113.593 43.3345 112.466C43.2733 100.168 41.0985 83.4188 48.0277 72.6773C52.1738 66.25 58.3284 63.331 65.5906 61.8078Z" fill="#FEFEFE"/>
<path d="M249.089 163.409C249.231 163.404 249.373 163.395 249.514 163.392C253.087 163.327 256.851 163.274 259.556 165.987C264.729 171.177 262.532 188.874 262.528 195.946L81.9832 195.981L66.1995 195.98C66.2012 194.519 66.1889 193.058 66.1628 191.597C66.0928 185.898 64.4289 169.44 68.6042 165.686C70.3892 164.081 75.7857 163.79 78.1063 163.662C96.8644 162.629 116.21 163.548 135.038 163.542L249.089 163.409Z" fill="#FED515"/>
<path d="M66.3091 207.051L262.454 207.005L262.467 238.234L66.474 238.296L66.3091 207.051Z" fill="#FEFEFE"/>
<path d="M31.4729 124.376L34.8308 124.303C40.847 124.174 47.5932 123.445 52.1795 128.238C54.544 130.709 55.1951 135.525 55.5478 138.775C56.7389 149.75 55.8742 161.601 55.8643 172.656L55.9034 238.24L40.7128 238.246C34.3949 238.256 24.6042 239.91 19.4824 235.732C17.2636 233.922 16.9116 229.507 16.6211 226.792C15.2199 213.694 16.2975 195.95 16.2985 182.435C16.2995 168.696 15.1071 148.509 16.9086 135.375C17.2545 132.854 17.9846 130.846 19.706 128.896C22.8197 125.369 27.0405 124.716 31.4729 124.376Z" fill="#FEFEFE"/>
<path d="M286.031 124.271C290.147 124.17 294.382 123.996 298.492 124.292C302.36 124.57 306.998 126.027 309.508 129.19C311.635 131.872 312.304 136.989 312.61 140.284C313.913 154.33 312.856 170.431 312.843 184.671C312.829 199.619 314.037 217.521 312.179 232.104C311.366 233.278 310.543 234.506 309.529 235.517C307.178 237.863 304.825 238.181 301.696 238.258L273.67 238.265L273.553 172.6C273.557 160.903 272.782 148.264 274.064 136.649C274.347 134.091 275.061 131.848 276.484 129.686C278.819 126.135 282.094 125.032 286.031 124.271Z" fill="#FEFEFE"/>
<path d="M280.768 250.207L292.675 250.13L292.681 267.118L284.296 267.075C283.19 261.438 282.014 255.815 280.768 250.207Z" fill="#FEFEFE"/>
<path d="M36.645 250.199L48.6399 250.117C47.3287 254.835 46.3384 259.684 45.2275 264.455C45.0703 265.21 44.7327 265.846 44.4103 266.541C42.1462 267.627 39.1485 267.173 36.6669 267.086L36.645 250.199Z" fill="#FEFEFE"/>
</svg>

<svg xmlns="http://www.w3.org/2000/svg" width="330" height="330" fill="none" viewBox="0 0 330 330"><path fill="#000" d="M64.008 50.381q3.116-.135 6.233-.18l134.262-.017 39.733-.024c7.569 0 15.895-.62 23.365.582 6.819 1.098 12.96 4.418 17.828 9.265 13.951 13.888 11.33 34.551 11.225 52.51 6.056.265 11.773 1.242 16.851 4.807 5.932 4.166 8.618 10.137 9.722 17.125 1.942 12.28.717 35.625.721 48.866.004 13.522 1.199 34.478-.524 47.295-.583 4.336-1.581 8.091-4.248 11.63-3.96 5.255-9.53 7.283-15.823 8.222-.082 6.487 1.037 13.682.13 20.036-.357 2.501-1.289 4.857-3.447 6.337-4.015 2.752-15.944 2.498-20.611 1.339-9.01-2.236-6.405-21.446-10.374-28.429l-1.572-.208-207.768.174c-1.424 6.173-2.624 21.441-6.517 25.7-2.025 2.216-5.009 2.971-7.892 3.198-4.832.382-13.179 1.24-17.04-2.388-4.806-4.515-2.903-19.357-2.87-25.498-4.576-1.089-8.631-2.227-12.33-5.257-5.228-4.282-6.673-10.152-7.341-16.61-.606-5.85-.3-11.954-.307-17.837l-.017-30.373c.001-12.865-1.204-34.375.58-46.393.742-4.994 2.037-8.954 5.299-12.868 5.572-6.686 13.159-8.056 21.328-8.856-.102-15.689-2.478-34.246 7.042-47.768 5.97-8.48 14.324-12.694 24.362-14.38"/><path fill="#fefefe" d="m169.695 61.492 63.275-.051c9.913-.005 23.252-1.28 32.82.791 4.474.969 8.785 3.422 12.03 6.636 10.486 10.386 7.753 29.65 7.781 43.254-3.159.645-6.271 1.307-9.175 2.758-7.197 3.595-10.554 9.116-13.05 16.535-1.185 7.127-.876 14.445-.852 21.647-11.638-2.403-24.564-1.31-36.428-1.299l-56.118.086q.155-45.18-.283-90.357m-104.105.316c10.388-.874 21.324-.22 31.775-.232l61.752-.06.066 90.306-21.821-.011-42.376-.02c-9.517 0-19.17-.359-28.638.689.033-10.031 1.48-22.129-4.728-30.719-4.575-6.331-10.95-8.168-18.285-9.295-.062-12.298-2.236-29.047 4.693-39.789 4.146-6.427 10.3-9.346 17.563-10.87"/><path fill="#fed515" d="M249.089 163.409c.142-.005.284-.014.425-.017 3.573-.065 7.337-.118 10.042 2.595 5.173 5.19 2.976 22.887 2.972 29.959l-180.545.035-15.784-.001q.003-2.192-.036-4.383c-.07-5.699-1.734-22.157 2.441-25.911 1.785-1.605 7.182-1.896 9.502-2.024 18.758-1.033 38.104-.114 56.932-.12z"/><path fill="#fefefe" d="m66.31 207.051 196.144-.046.013 31.229-195.993.062zm-34.837-82.675 3.358-.073c6.016-.129 12.762-.858 17.348 3.935 2.365 2.471 3.016 7.287 3.369 10.537 1.19 10.975.326 22.826.316 33.881l.04 65.584-15.191.006c-6.318.01-16.109 1.664-21.23-2.514-2.22-1.81-2.571-6.225-2.862-8.94-1.401-13.098-.323-30.842-.322-44.357 0-13.739-1.192-33.926.61-47.06.346-2.521 1.076-4.529 2.797-6.479 3.114-3.527 7.335-4.18 11.767-4.52m254.558-.105c4.116-.101 8.351-.275 12.461.021 3.868.278 8.506 1.735 11.016 4.898 2.127 2.682 2.796 7.799 3.102 11.094 1.303 14.046.246 30.147.233 44.387-.014 14.948 1.194 32.85-.664 47.433-.813 1.174-1.636 2.402-2.65 3.413-2.351 2.346-4.704 2.664-7.833 2.741l-28.026.007-.117-65.665c.004-11.697-.771-24.336.511-35.951.283-2.558.997-4.801 2.42-6.963 2.335-3.551 5.61-4.654 9.547-5.415m-5.263 125.936 11.907-.077.006 16.988-8.385-.043a692 692 0 0 0-3.528-16.868m-244.123-.008 11.995-.082c-1.311 4.718-2.302 9.567-3.413 14.338-.157.755-.494 1.391-.817 2.086-2.264 1.086-5.261.632-7.743.545z"/></svg>
